Adwaita++/emblems/16/emblem-shared.svg

<svg fill="none" height="16" viewBox="0 0 16 16" width="16" xmlns="http://www.w3.org/2000/svg">
  <path d="m13.6 1h-11.2c-.7732 0-1.4.6268-1.4 1.4v11.2c0 .7732.6268 1.4 1.4 1.4h11.2c.7732 0 1.4-.6268 1.4-1.4v-11.2c0-.7732-.6268-1.4-1.4-1.4z" fill="#9a9996"/>
  <path d="m11.1336 3c-1.0308 0-1.86641.83398-1.86641 1.86275 0 .0877.00802.1704.01964.2549l-3.14342 1.52941c-.33419-.31463-.78132-.5098-1.27701-.5098-1.03078 0-1.8664.83397-1.8664 1.86274s.83562 1.86275 1.8664 1.86275c.50554 0 .96056-.20362 1.29666-.52942l3.12377 1.56867c-.01002.0783-.01964.1542-.01964.2353 0 1.0287.83561 1.8627 1.86641 1.8627s1.8664-.834 1.8664-1.8627c0-1.0288-.8356-1.86279-1.8664-1.86279-.4904 0-.9243.20113-1.25736.5098l-3.16307-1.58823c.00701-.0658.01964-.12843.01964-.19608 0-.0743-.01113-.14362-.01964-.21569l3.18271-1.54902c.33082.29773.75722.4902 1.23772.4902 1.0308 0 1.8664-.83398 1.8664-1.86274 0-1.02877-.8356-1.86275-1.8664-1.86275z" fill="#fff"/>
</svg>

<svg xmlns="http://www.w3.org/2000/svg" fill="none" width="16" height="16" viewBox="0 0 16 16">
 <path fill="url(#paint0_linear)" d="M13.6 1H2.4C1.6268 1 1 1.6268 1 2.4V13.6C1 14.3732 1.6268 15 2.4 15H13.6C14.3732 15 15 14.3732 15 13.6V2.4C15 1.6268 14.3732 1 13.6 1Z"/>
 <path fill="#fff" d="M11.1336 3C10.1028 3 9.26719 3.83398 9.26719 4.86275C9.26719 4.95045 9.27521 5.03315 9.28683 5.11765L6.14341 6.64706C5.80922 6.33243 5.36209 6.13726 4.8664 6.13726C3.83562 6.13726 3 6.97123 3 8C3 9.02877 3.83562 9.86275 4.8664 9.86275C5.37194 9.86275 5.82696 9.65913 6.16306 9.33333L9.28683 10.902C9.27681 10.9803 9.26719 11.0562 9.26719 11.1373C9.26719 12.166 10.1028 13 11.1336 13C12.1644 13 13 12.166 13 11.1373C13 10.1085 12.1644 9.27451 11.1336 9.27451C10.6432 9.27451 10.2093 9.47564 9.87624 9.78431L6.71317 8.19608C6.72018 8.13028 6.73281 8.06765 6.73281 8C6.73281 7.9257 6.72168 7.85638 6.71317 7.78431L9.89588 6.23529C10.2267 6.53302 10.6531 6.72549 11.1336 6.72549C12.1644 6.72549 13 5.89151 13 4.86275C13 3.83398 12.1644 3 11.1336 3V3Z"/>
 <defs>
  <linearGradient id="paint0_linear" x1="1" x2="15" y1="8" y2="8" gradientUnits="userSpaceOnUse">
   <stop stop-color="#9A9996"/>
  </linearGradient>
 </defs>
</svg>
